file/bp.svg

<svg clip-rule="evenodd" fill-rule="evenodd" stroke-linejoin="round" stroke-miterlimit="1.41421" viewBox="0 0 560 400" xmlns="http://www.w3.org/2000/svg"><g fill-rule="nonzero" transform="matrix(.949668 0 0 .949668 179.05 65.0522)"><g><path d="m211.6 194.7c-6.8-7.3-14.3-13.5-22.2-18.5 7.8-5 15.3-11.3 22.1-18.6-8.9-4.5-18.1-7.8-27.2-9.8 5.6-7.4 10.5-15.9 14.5-25-9.9-1.2-19.6-1.1-28.9.1 2.8-8.9 4.5-18.5 5-28.5-9.7 2.3-18.9 5.6-27.1 9.9-.5-9.3-2.1-18.9-5-28.5-8.3 5.5-15.8 11.8-22.1 18.6-3.6-8.6-8.5-17-14.5-25-6 8-10.8 16.5-14.4 25.1-6.3-6.9-13.8-13.2-22.1-18.6-2.9 9.5-4.5 19.1-5 28.4-8.3-4.3-17.4-7.6-27.1-9.9.6 10 2.3 19.6 5.1 28.5-9.3-1.2-19-1.2-29 0 3.9 9.2 8.8 17.6 14.5 25-9.1 2.1-18.3 5.4-27.2 9.9 6.8 7.3 14.3 13.5 22.2 18.5-7.8 5-15.3 11.3-22.1 18.6 8.9 4.5 18.1 7.8 27.2 9.8-5.6 7.4-10.5 15.9-14.5 25 9.9 1.2 19.6 1.1 28.8 0-2.8 8.9-4.5 18.5-5 28.4 9.7-2.3 18.9-5.6 27.1-9.9.4 9.3 2.1 18.9 5 28.5 8.3-5.5 15.8-11.7 22.1-18.6 3.6 8.6 8.5 17.1 14.5 25.1 6-8 10.8-16.5 14.4-25.1 6.3 6.9 13.8 13.2 22.2 18.6 2.9-9.5 4.5-19.1 5-28.5 8.3 4.3 17.5 7.6 27.2 9.9-.6-10-2.3-19.5-5.1-28.4 9.2 1.2 19 1.2 28.9 0-3.9-9.2-8.8-17.6-14.5-25 9.1-2.2 18.3-5.5 27.2-10z" fill="#090"/><path d="m184.4 204.6c-5.2-6.8-11.1-12.8-17.5-17.7 7.7-2.4 15.2-6.1 22.5-10.7-7.3-4.6-14.8-8.2-22.5-10.6 6.4-4.9 12.2-10.9 17.5-17.8-8.4-1.9-16.7-2.7-24.8-2.3 4.3-6.8 7.8-14.4 10.3-22.7-8.5 1.1-16.6 3.2-24.1 6.3 1.7-7.9 2.4-16.2 1.9-24.9-7.6 4-14.5 8.7-20.4 14.2-1.1-8-3.3-16.1-6.7-24-5.9 6.4-10.7 13.2-14.4 20.4-3.7-7.1-8.6-14-14.5-20.3-3.3 7.9-5.5 16-6.5 23.9-5.9-5.4-12.9-10.2-20.6-14.1-.4 8.6.3 17 2 24.9-7.4-3.1-15.5-5.1-24.1-6.2 2.6 8.2 6.1 15.8 10.4 22.6-8-.3-16.4.5-24.9 2.4 5.2 6.8 11.1 12.8 17.5 17.7-7.7 2.4-15.2 6.1-22.5 10.7 7.3 4.6 14.8 8.2 22.5 10.6-6.4 4.9-12.2 10.9-17.5 17.8 8.4 1.9 16.7 2.7 24.7 2.3-4.3 6.8-7.8 14.4-10.3 22.7 8.5-1.1 16.7-3.2 24.1-6.3-1.7 7.8-2.4 16.2-2 24.8 7.7-4 14.6-8.7 20.5-14.1 1.1 8 3.3 16.1 6.6 24 5.8-6.4 10.7-13.2 14.4-20.3 3.7 7.1 8.6 14 14.5 20.3 3.3-7.9 5.5-16 6.6-24 5.9 5.4 12.9 10.2 20.6 14.1.4-8.6-.3-17-2-24.8 7.4 3.1 15.6 5.1 24.1 6.2-2.6-8.2-6.1-15.8-10.4-22.6 8.2.2 16.6-.6 25-2.5z" fill="#9c0"/><path d="m147.8 176.3c6.7-2.5 13.2-6.1 19.2-10.7-7.2-2.3-14.5-3.4-21.6-3.5 5.5-4.6 10.3-10.2 14.3-16.6-7.5.3-14.8 1.7-21.5 4.2 3.6-6.2 6.2-13.1 7.8-20.5-7 2.9-13.3 6.7-18.8 11.3 1.2-7.1 1.3-14.5.3-22-5.6 5.1-10.3 10.9-13.9 17.1-1.3-7.1-3.7-14.1-7.2-20.8-3.4 6.7-5.9 13.6-7.1 20.6-3.6-6.2-8.3-11.9-13.9-17-1 7.5-.9 14.9.3 22-5.5-4.6-11.9-8.4-18.9-11.2 1.6 7.4 4.2 14.3 7.8 20.5-6.7-2.4-14-3.8-21.5-4.1 4.1 6.4 8.9 11.9 14.3 16.6-7.2 0-14.5 1.2-21.7 3.5 6 4.6 12.4 8.2 19.2 10.6-6.7 2.5-13.2 6.1-19.2 10.7 7.2 2.2 14.5 3.4 21.6 3.5-5.5 4.6-10.3 10.2-14.4 16.6 7.5-.3 14.8-1.7 21.5-4.1-3.6 6.2-6.2 13.2-7.8 20.5 7-2.9 13.3-6.7 18.8-11.3-1.2 7.1-1.3 14.4-.3 21.9 5.6-5.1 10.3-10.8 13.9-17 1.3 7.1 3.7 14 7.2 20.7 3.5-6.7 5.9-13.6 7.2-20.7 3.6 6.2 8.3 11.9 13.9 17 1-7.5.9-14.9-.3-21.9 5.5 4.6 11.9 8.4 18.9 11.3-1.6-7.4-4.2-14.3-7.8-20.5 6.8 2.4 14 3.8 21.6 4.1-4.1-6.4-8.9-11.9-14.4-16.6 7.2 0 14.5-1.2 21.7-3.5-6.1-4.7-12.5-8.3-19.2-10.7z" fill="#ff0"/><path d="m127.3 179.9c7 0 13.9-1.3 20.4-3.7-6.6-2.4-13.4-3.7-20.4-3.7 6.6-2.4 12.6-6 17.9-10.5-7 0-13.9 1.1-20.5 3.5 5.4-4.5 9.8-9.9 13.3-16-6.6 2.4-12.6 5.8-18 10.3 3.5-6.1 5.8-12.7 7-19.5-5.4 4.5-9.9 9.8-13.5 15.9 1.2-6.9 1.1-13.9-.1-20.8-3.5 6-5.9 12.5-7.1 19.3-1.2-6.9-3.7-13.5-7.2-19.5-1.2 6.9-1.3 13.9-.1 20.8-3.5-6.1-8.1-11.4-13.4-15.9 1.2 6.9 3.5 13.5 7 19.5-5.4-4.5-11.5-7.9-18-10.3 3.5 6.1 7.9 11.4 13.3 16-6.6-2.4-13.5-3.5-20.4-3.5 5.3 4.5 11.3 8 17.9 10.5-7 0-13.9 1.3-20.5 3.7 6.6 2.4 13.4 3.7 20.4 3.7-6.6 2.4-12.6 6-18 10.5 7 0 13.9-1.1 20.5-3.5-5.4 4.5-9.8 9.9-13.3 16 6.6-2.4 12.7-5.8 18-10.3-3.5 6.1-5.8 12.7-7 19.6 5.4-4.5 9.9-9.8 13.4-15.8-1.2 6.9-1.1 13.9.1 20.7 3.5-6 6-12.6 7.2-19.4 1.2 6.9 3.7 13.4 7.2 19.5 1.2-6.9 1.3-13.8.1-20.7 3.5 6.1 8.1 11.4 13.4 15.8-1.2-6.9-3.5-13.4-7-19.5 5.4 4.5 11.5 7.9 18.1 10.3-3.5-6.1-7.9-11.4-13.3-16 6.6 2.4 13.5 3.5 20.5 3.5-5.3-4.5-11.3-8-17.9-10.5z" fill="#fff"/></g><g fill="#090"><path d="m163.6 33.5c0 6.1-2.2 14.5-10.8 14.5-10.4 0-10.4-11.7-10.4-14.1s0-14.8 10.7-14.8c9.7-.1 10.5 10.7 10.5 14.4zm-21-32.5h-7v44.8l-.2 6.7h6.7l.2-5.6c.7 1.1 1.6 2.4 3.6 3.8 3.2 2.2 6.5 2.4 8.3 2.4 5.1 0 10.1-2.2 13.1-6.4 1.9-2.4 3.6-6.4 3.6-13.6 0-8.2-2.5-11.9-4.4-14-3.4-3.9-8.1-4.8-11.8-4.8-8.5 0-11.2 4.7-12.2 6.4v-19.7z"/><path d="m182.9 35c0-3.3 0-15.1 11.1-15.1 8.2 0 10.2 7 10.2 13.7 0 2.7-.4 8-3 11.7-2.4 3.3-6.1 3.6-7.9 3.6-9.7-.1-10.4-9.4-10.4-13.9zm-6.6 31.8h6.9v-18.4c2 3.3 6 5.6 11.4 5.6 8.9 0 17-6.1 17-20 0-13.8-7.6-19.3-15.6-19.3-3 0-9.2.9-12.7 6.8l-.1-6.2h-7c.1 3.6.2 4.5.2 6.1z"/></g></g></svg>

<?xml version="1.0" encoding="UTF-8" standalone="no"?>
<!DOCTYPE svg PUBLIC "-//W3C//DTD SVG 1.1//EN" "http://www.w3.org/Graphics/SVG/1.1/DTD/svg11.dtd">
<svg width="100%" height="100%" viewBox="0 0 560 400" version="1.1" xmlns="http://www.w3.org/2000/svg" xmlns:xlink="http://www.w3.org/1999/xlink" xml:space="preserve" xmlns:serif="http://www.serif.com/" style="fill-rule:evenodd;clip-rule:evenodd;stroke-linejoin:round;stroke-miterlimit:1.41421;">
    <g transform="matrix(0.949668,0,0,0.949668,179.05,65.0522)">
        <g id="Layer_1">
            <path d="M211.6,194.7C204.8,187.4 197.3,181.2 189.4,176.2C197.2,171.2 204.7,164.9 211.5,157.6C202.6,153.1 193.4,149.8 184.3,147.8C189.9,140.4 194.8,131.9 198.8,122.8C188.9,121.6 179.2,121.7 169.9,122.9C172.7,114 174.4,104.4 174.9,94.4C165.2,96.7 156,100 147.8,104.3C147.3,95 145.7,85.4 142.8,75.8C134.5,81.3 127,87.6 120.7,94.4C117.1,85.8 112.2,77.4 106.2,69.4C100.2,77.4 95.4,85.9 91.8,94.5C85.5,87.6 78,81.3 69.7,75.9C66.8,85.4 65.2,95 64.7,104.3C56.4,100 47.3,96.7 37.6,94.4C38.2,104.4 39.9,114 42.7,122.9C33.4,121.7 23.7,121.7 13.7,122.9C17.6,132.1 22.5,140.5 28.2,147.9C19.1,150 9.9,153.3 1,157.8C7.8,165.1 15.3,171.3 23.2,176.3C15.4,181.3 7.9,187.6 1.1,194.9C10,199.4 19.2,202.7 28.3,204.7C22.7,212.1 17.8,220.6 13.8,229.7C23.7,230.9 33.4,230.8 42.6,229.7C39.8,238.6 38.1,248.2 37.6,258.1C47.3,255.8 56.5,252.5 64.7,248.2C65.1,257.5 66.8,267.1 69.7,276.7C78,271.2 85.5,265 91.8,258.1C95.4,266.7 100.3,275.2 106.3,283.2C112.3,275.2 117.1,266.7 120.7,258.1C127,265 134.5,271.3 142.9,276.7C145.8,267.2 147.4,257.6 147.9,248.2C156.2,252.5 165.4,255.8 175.1,258.1C174.5,248.1 172.8,238.6 170,229.7C179.2,230.9 189,230.9 198.9,229.7C195,220.5 190.1,212.1 184.4,204.7C193.5,202.5 202.7,199.2 211.6,194.7Z" style="fill:rgb(0,153,0);fill-rule:nonzero;"/>
            <path d="M184.4,204.6C179.2,197.8 173.3,191.8 166.9,186.9C174.6,184.5 182.1,180.8 189.4,176.2C182.1,171.6 174.6,168 166.9,165.6C173.3,160.7 179.1,154.7 184.4,147.8C176,145.9 167.7,145.1 159.6,145.5C163.9,138.7 167.4,131.1 169.9,122.8C161.4,123.9 153.3,126 145.8,129.1C147.5,121.2 148.2,112.9 147.7,104.2C140.1,108.2 133.2,112.9 127.3,118.4C126.2,110.4 124,102.3 120.6,94.4C114.7,100.8 109.9,107.6 106.2,114.8C102.5,107.7 97.6,100.8 91.7,94.5C88.4,102.4 86.2,110.5 85.2,118.4C79.3,113 72.3,108.2 64.6,104.3C64.2,112.9 64.9,121.3 66.6,129.2C59.2,126.1 51.1,124.1 42.5,123C45.1,131.2 48.6,138.8 52.9,145.6C44.9,145.3 36.5,146.1 28,148C33.2,154.8 39.1,160.8 45.5,165.7C37.8,168.1 30.3,171.8 23,176.4C30.3,181 37.8,184.6 45.5,187C39.1,191.9 33.3,197.9 28,204.8C36.4,206.7 44.7,207.5 52.7,207.1C48.4,213.9 44.9,221.5 42.4,229.8C50.9,228.7 59.1,226.6 66.5,223.5C64.8,231.3 64.1,239.7 64.5,248.3C72.2,244.3 79.1,239.6 85,234.2C86.1,242.2 88.3,250.3 91.6,258.2C97.4,251.8 102.3,245 106,237.9C109.7,245 114.6,251.9 120.5,258.2C123.8,250.3 126,242.2 127.1,234.2C133,239.6 140,244.4 147.7,248.3C148.1,239.7 147.4,231.3 145.7,223.5C153.1,226.6 161.3,228.6 169.8,229.7C167.2,221.5 163.7,213.9 159.4,207.1C167.6,207.3 176,206.5 184.4,204.6Z" style="fill:rgb(153,204,0);fill-rule:nonzero;"/>
            <path id="_x0032_" d="M147.8,176.3C154.5,173.8 161,170.2 167,165.6C159.8,163.3 152.5,162.2 145.4,162.1C150.9,157.5 155.7,151.9 159.7,145.5C152.2,145.8 144.9,147.2 138.2,149.7C141.8,143.5 144.4,136.6 146,129.2C139,132.1 132.7,135.9 127.2,140.5C128.4,133.4 128.5,126 127.5,118.5C121.9,123.6 117.2,129.4 113.6,135.6C112.3,128.5 109.9,121.5 106.4,114.8C103,121.5 100.5,128.4 99.3,135.4C95.7,129.2 91,123.5 85.4,118.4C84.4,125.9 84.5,133.3 85.7,140.4C80.2,135.8 73.8,132 66.8,129.2C68.4,136.6 71,143.5 74.6,149.7C67.9,147.3 60.6,145.9 53.1,145.6C57.2,152 62,157.5 67.4,162.2C60.2,162.2 52.9,163.4 45.7,165.7C51.7,170.3 58.1,173.9 64.9,176.3C58.2,178.8 51.7,182.4 45.7,187C52.9,189.2 60.2,190.4 67.3,190.5C61.8,195.1 57,200.7 52.9,207.1C60.4,206.8 67.7,205.4 74.4,203C70.8,209.2 68.2,216.2 66.6,223.5C73.6,220.6 79.9,216.8 85.4,212.2C84.2,219.3 84.1,226.6 85.1,234.1C90.7,229 95.4,223.3 99,217.1C100.3,224.2 102.7,231.1 106.2,237.8C109.7,231.1 112.1,224.2 113.4,217.1C117,223.3 121.7,229 127.3,234.1C128.3,226.6 128.2,219.2 127,212.2C132.5,216.8 138.9,220.6 145.9,223.5C144.3,216.1 141.7,209.2 138.1,203C144.9,205.4 152.1,206.8 159.7,207.1C155.6,200.7 150.8,195.2 145.3,190.5C152.5,190.5 159.8,189.3 167,187C160.9,182.3 154.5,178.7 147.8,176.3Z" style="fill:rgb(255,255,0);fill-rule:nonzero;"/>
            <path id="_x0031_" d="M127.3,179.9C134.3,179.9 141.2,178.6 147.7,176.2C141.1,173.8 134.3,172.5 127.3,172.5C133.9,170.1 139.9,166.5 145.2,162C138.2,162 131.3,163.1 124.7,165.5C130.1,161 134.5,155.6 138,149.5C131.4,151.9 125.4,155.3 120,159.8C123.5,153.7 125.8,147.1 127,140.3C121.6,144.8 117.1,150.1 113.5,156.2C114.7,149.3 114.6,142.3 113.4,135.4C109.9,141.4 107.5,147.9 106.3,154.7C105.1,147.8 102.6,141.2 99.1,135.2C97.9,142.1 97.8,149.1 99,156C95.5,149.9 90.9,144.6 85.6,140.1C86.8,147 89.1,153.6 92.6,159.6C87.2,155.1 81.1,151.7 74.6,149.3C78.1,155.4 82.5,160.7 87.9,165.3C81.3,162.9 74.4,161.8 67.5,161.8C72.8,166.3 78.8,169.8 85.4,172.3C78.4,172.3 71.5,173.6 64.9,176C71.5,178.4 78.3,179.7 85.3,179.7C78.7,182.1 72.7,185.7 67.3,190.2C74.3,190.2 81.2,189.1 87.8,186.7C82.4,191.2 78,196.6 74.5,202.7C81.1,200.3 87.2,196.9 92.5,192.4C89,198.5 86.7,205.1 85.5,212C90.9,207.5 95.4,202.2 98.9,196.2C97.7,203.1 97.8,210.1 99,216.9C102.5,210.9 105,204.3 106.2,197.5C107.4,204.4 109.9,210.9 113.4,217C114.6,210.1 114.7,203.2 113.5,196.3C117,202.4 121.6,207.7 126.9,212.1C125.7,205.2 123.4,198.7 119.9,192.6C125.3,197.1 131.4,200.5 138,202.9C134.5,196.8 130.1,191.5 124.7,186.9C131.3,189.3 138.2,190.4 145.2,190.4C139.9,185.9 133.9,182.4 127.3,179.9Z" style="fill:white;fill-rule:nonzero;"/>
        </g>
        <g id="Layer_2">
            <path d="M163.6,33.5C163.6,39.6 161.4,48 152.8,48C142.4,48 142.4,36.3 142.4,33.9C142.4,31.5 142.4,19.1 153.1,19.1C162.8,19 163.6,29.8 163.6,33.5ZM142.6,1L135.6,1L135.6,45.8L135.4,52.5L142.1,52.5L142.3,46.9C143,48 143.9,49.3 145.9,50.7C149.1,52.9 152.4,53.1 154.2,53.1C159.3,53.1 164.3,50.9 167.3,46.7C169.2,44.3 170.9,40.3 170.9,33.1C170.9,24.9 168.4,21.2 166.5,19.1C163.1,15.2 158.4,14.3 154.7,14.3C146.2,14.3 143.5,19 142.5,20.7L142.5,1L142.6,1Z" style="fill:rgb(0,153,0);fill-rule:nonzero;"/>
            <path d="M182.9,35C182.9,31.7 182.9,19.9 194,19.9C202.2,19.9 204.2,26.9 204.2,33.6C204.2,36.3 203.8,41.6 201.2,45.3C198.8,48.6 195.1,48.9 193.3,48.9C183.6,48.8 182.9,39.5 182.9,35ZM176.3,66.8L183.2,66.8L183.2,48.4C185.2,51.7 189.2,54 194.6,54C203.5,54 211.6,47.9 211.6,34C211.6,20.2 204,14.7 196,14.7C193,14.7 186.8,15.6 183.3,21.5L183.2,15.3L176.2,15.3C176.3,18.9 176.4,19.8 176.4,21.4L176.3,66.8Z" style="fill:rgb(0,153,0);fill-rule:nonzero;"/>
        </g>
    </g>
</svg>
